X:748
%%etbk:tnset id:477,pos:1,rep:3x,ant:
%%etbk:pldat 2015-11-26T18:15,2015-11-04T15:42,2015-11-03T16:11,2015-11-01T14:34,2015-10-27T15:56,2015-10-25T13:39,2015-10-19T18:00,2015-10-15T18:27,2015-10-08T18:14,2015-10-07T15:09,2015-10-05T18:37,2015-10-01T18:07,2015-09-30T15:38,2015-09-29T15:26,2015-08-27T18:53,2015-08-19T15:53,2015-08-15T16:29,2015-08-10T17:59,2015-07-31T17:16,2015-07-25T14:11,2015-07-08T10:58,2015-05-31T10:30
T: Cold Blow And The Rainy Night
Z: Piano Box Version by Martin Fleischmann
H: Created 2015-05-31 /  Last Modified 2015-09-29
R: jig
M: 6/8
L: 1/8
K: Gmaj
A|:"D-Drone"!1!D2!3!G G2!1!E|!2!F2!1!G A2!5!d|d2A A2!1!G|!2!F2A D2D|
D2G G2E|F2G A2d|d2G B2A|G3 G3:|
|:"D-Drone"z6|z6|d3 edc|1.B2G A3:|2. B2G ~A3|(G6|G6)||
"D-Drone"!1!G2!3!B B2G|!1!A2B c2!1!d|!3!~f2 d ~d3|!3!ded !2!c!1!A!2!F|
G2B B2G|A2B c2d|fed cAd|(G3 G3)||
|:"D-Drone"z6|z6|d3 edc|1.B2G A3:|2. B2G ~A3|(G6|G6)||
|:F2E D2D|F2E D3|d3 edc|1. B2G A3:|2. B2G ~A3|(G6| G5)A|]
|:G2B B2G|A2B c2d|(3fga f g2e|d2c A2A|
G2B B2G|A2B c2d|fed cAd|(G3 G3):|


